X: 37708
T: Softly Robin
R: reel
M: 4/4
K: Gmajor
G2G2 B4|A2A2 c2e2|G2G2 B4|d2d2 e2g2:|
gfed BcdB|A2A2 c2e2|gfed BcdB|d2d2 e2g2|
gfed BcdB|A2A2 c2e2|G2G2 B4|d2d2 e2g2||

